src/icons/svg/platform.svg

<svg xmlns="http://www.w3.org/2000/svg" width="16" height="16" fill="none"><path fill="#C3C3C6" fill-rule="evenodd" d="M5.342 2.449a.78.78 0 0 0-.501.508c-.135.382.086.84.475.986C5.468 4 5.478 4 8 4s2.532 0 2.684-.057a.8.8 0 0 0 .277-.182.79.79 0 0 0-.208-1.273l-.153-.075-2.56-.006c-2.403-.005-2.568-.003-2.698.042m-1.6 2.4a.78.78 0 0 0-.501.508c-.135.382.086.84.475.986l.153.057h8.262l.153-.057a.8.8 0 0 0 .277-.182.79.79 0 0 0-.208-1.273l-.153-.075-4.16-.006c-3.939-.005-4.167-.003-4.298.042m-.889 2.393a1.5 1.5 0 0 0-.774.436 1.47 1.47 0 0 0-.426.738c-.05.195-.053.301-.053 1.984s.003 1.789.053 1.984c.077.301.195.506.426.737s.436.349.737.426c.201.052.314.053 5.184.053s4.983-.001 5.184-.053c.301-.077.506-.195.737-.426s.349-.436.426-.737c.05-.195.053-.301.053-1.984s-.003-1.789-.053-1.984a1.47 1.47 0 0 0-.426-.738 1.5 1.5 0 0 0-.788-.438c-.273-.057-10.013-.056-10.28.002"/></svg>

<svg width="16" height="16" fill="none" xmlns="http://www.w3.org/2000/svg"><path d="M5.342 2.449 C 5.095 2.535,4.931 2.701,4.841 2.957 C 4.706 3.339,4.927 3.797,5.316 3.943 C 5.468 4.000,5.478 4.000,8.000 4.000 C 10.522 4.000,10.532 4.000,10.684 3.943 C 10.783 3.906,10.881 3.842,10.961 3.761 C 11.348 3.375,11.242 2.728,10.753 2.488 L 10.600 2.413 8.040 2.407 C 5.637 2.402,5.472 2.404,5.342 2.449 M3.742 4.849 C 3.495 4.935,3.331 5.101,3.241 5.357 C 3.106 5.739,3.327 6.197,3.716 6.343 L 3.869 6.400 8.000 6.400 L 12.131 6.400 12.284 6.343 C 12.383 6.306,12.481 6.242,12.561 6.161 C 12.948 5.775,12.842 5.128,12.353 4.888 L 12.200 4.813 8.040 4.807 C 4.101 4.802,3.873 4.804,3.742 4.849 M2.853 7.242 C 2.562 7.304,2.307 7.448,2.079 7.678 C 1.848 7.910,1.729 8.116,1.653 8.416 C 1.603 8.611,1.600 8.717,1.600 10.400 C 1.600 12.083,1.603 12.189,1.653 12.384 C 1.730 12.685,1.848 12.890,2.079 13.121 C 2.310 13.352,2.515 13.470,2.816 13.547 C 3.017 13.599,3.130 13.600,8.000 13.600 C 12.870 13.600,12.983 13.599,13.184 13.547 C 13.485 13.470,13.690 13.352,13.921 13.121 C 14.152 12.890,14.270 12.685,14.347 12.384 C 14.397 12.189,14.400 12.083,14.400 10.400 C 14.400 8.717,14.397 8.611,14.347 8.416 C 14.271 8.116,14.152 7.910,13.921 7.678 C 13.690 7.445,13.436 7.304,13.133 7.240 C 12.860 7.183,3.120 7.184,2.853 7.242 " fill="#C3C3C6" stroke="none" fill-rule="evenodd"></path></svg>
